X:137
T:Father Kelly's
M:4/4
L:1/8
R:Reel
K:G
GA||"G"B2 GB "C"AGEG | "G"DGGF GABd | "Ami"c2 AB cBAG | "D"EAAG FDGA |
"G"B2 GB "C"AGEG | "G"DGGF GABc | "C"d2 Bd gdBd |
1 "D"cAFA "G"G2:|2 "D"cAFA "G"GABc|:
"G"d2 Bd gdBd | d2 Bd gdBd | "Ami"e2 ce agfe | "C"defg "D"agfe|
"G"d2 Bd gdBd | d2 Bd "Emi"gdBd | "C"c2 Ac "G"B2 GB | "D"AGEF "G"G2:|
